packages/bezier-icons/icons/pie-chart.svg

<svg width="24" height="24" viewBox="0 0 24 24" fill="none" xmlns="http://www.w3.org/2000/svg">
<path fill-rule="evenodd" clip-rule="evenodd" d="M13.0003 11.9999C12.448 11.9999 12.0003 11.5522 12.0003 10.9999V2.99994C12.0003 2.44766 12.4493 1.99468 12.9989 2.04941C17.7173 2.51935 21.4809 6.28291 21.9508 11.0014C22.0056 11.5509 21.5526 11.9999 21.0003 11.9999H13.0003ZM12 20.0001C15.625 20.0001 18.841 17.4851 19.742 13.9931H21.79C21.7834 14.0268 21.7783 14.0608 21.7732 14.0948C21.7668 14.1376 21.7605 14.1803 21.751 14.2221C20.725 18.7281 16.624 22.0001 12 22.0001C6.486 22.0001 2 17.5141 2 12.0001C2 7.37712 5.271 3.27512 9.778 2.24912C9.81763 2.2395 9.85823 2.23404 9.89888 2.22857C9.93002 2.22439 9.9612 2.2202 9.992 2.21412V4.26212C6.508 5.16912 4 8.38112 4 12.0001C4 16.4111 7.589 20.0001 12 20.0001Z" fill="#313234"/>
</svg>

<svg xmlns="http://www.w3.org/2000/svg" width="24" height="24" fill="none" viewBox="0 0 24 24"><path fill="#313234" fill-rule="evenodd" d="M13 12a1 1 0 0 1-1-1V3c0-.552.45-1.005.999-.95 4.718.47 8.482 4.233 8.952 8.951.055.55-.398.999-.95.999zm-1 8c3.625 0 6.841-2.515 7.742-6.007h2.048q-.01.051-.017.102-.008.064-.022.127C20.725 18.728 16.624 22 12 22 6.486 22 2 17.514 2 12c0-4.623 3.271-8.725 7.778-9.75q.06-.014.12-.021.048-.007.094-.015v2.048C6.508 5.17 4 8.382 4 12c0 4.411 3.589 8 8 8" clip-rule="evenodd"/></svg>
